src/Icon/svgs/Hot.svg

<svg width="24" height="24" viewBox="0 0 24 24" fill="none" xmlns="http://www.w3.org/2000/svg">
<path fill-rule="evenodd" clip-rule="evenodd" d="M14 1C12 1.86 11.5 3.00027 11.5 4C11.5 4.99973 12 8 10 8C9 8 8.33333 7 8 5C5 7.25 3.5 11.12 3.5 14.5C3.5 18.92 7 21.9937 12 22C17 22.0062 20.5 19 20.5 14.5C20.5 12 20 10.0714 18 7.5C16 4.92857 14 3.99997 14 1ZM8 15.5C8 14 9 12.5 11 12C13 11.5 13.5 10.9999 14 10C15.08 10.8671 16 13 16 15C16 17.7857 14 19 12 19C10.22 19 8 18 8 15.5Z" fill="#1B1C1D"/>
</svg>

<svg xmlns="http://www.w3.org/2000/svg" width="24" height="24" fill="none"  xmlns:v="https://vecta.io/nano"><path fill-rule="evenodd" d="M14 1c-2 .86-2.5 2-2.5 3S12 8 10 8C9 8 8.333 7 8 5c-3 2.25-4.5 6.12-4.5 9.5 0 4.42 3.5 7.494 8.5 7.5s8.5-3 8.5-7.5c0-2.5-.5-4.429-2.5-7S14 4 14 1zM8 15.5c0-1.5 1-3 3-3.5s2.5-1 3-2c1.08.867 2 3 2 5 0 2.786-2 4-4 4-1.78 0-4-1-4-3.5z" fill="#1b1c1d"/></svg>
